www/assets/icons/self_improvement.svg

<svg xmlns="http://www.w3.org/2000/svg" width="24" height="24" viewBox="0 0 24 24" fill='currentColor'><path d="M12 8a2 2 0 1 0 0-4 2 2 0 0 0 0 4m9 8v-2c-2.24 0-4.16-.96-5.6-2.68l-1.34-1.6A1.98 1.98 0 0 0 12.53 9h-1.05c-.59 0-1.15.26-1.53.72l-1.34 1.6C7.16 13.04 5.24 14 3 14v2c2.77 0 5.19-1.17 7-3.25V15l-3.88 1.55c-.67.27-1.12.93-1.12 1.66C5 19.2 5.8 20 6.79 20H9v-.5a2.5 2.5 0 0 1 2.5-2.5h3c.28 0 .5.22.5.5s-.22.5-.5.5h-3c-.83 0-1.5.67-1.5 1.5v.5h7.21c.99 0 1.79-.8 1.79-1.79 0-.73-.45-1.39-1.12-1.66L14 15v-2.25c1.81 2.08 4.23 3.25 7 3.25"/></svg>

<svg width="24" height="24" viewBox="0 0 24 24" xmlns="http://www.w3.org/2000/svg" fill='currentColor'><path d="M12 8C13.1046 8 14 7.10457 14 6C14 4.89543 13.1046 4 12 4C10.8954 4 10 4.89543 10 6C10 7.10457 10.8954 8 12 8Z"/><path d="M21 16V14C18.76 14 16.84 13.04 15.4 11.32L14.06 9.72C13.68 9.26 13.12 9 12.53 9H11.48C10.89 9 10.33 9.26 9.95 9.72L8.61 11.32C7.16 13.04 5.24 14 3 14V16C5.77 16 8.19 14.83 10 12.75V15L6.12 16.55C5.45 16.82 5 17.48 5 18.21C5 19.2 5.8 20 6.79 20H9V19.5C9 18.12 10.12 17 11.5 17H14.5C14.78 17 15 17.22 15 17.5C15 17.78 14.78 18 14.5 18H11.5C10.67 18 10 18.67 10 19.5V20H17.21C18.2 20 19 19.2 19 18.21C19 17.48 18.55 16.82 17.88 16.55L14 15V12.75C15.81 14.83 18.23 16 21 16Z"/></svg>
